svgs/regular/users-medical.svg

<svg xmlns="http://www.w3.org/2000/svg" viewBox="0 0 640 512"><!-- Font Awesome Pro 6.0.0-alpha2 by @fontawesome - https://fontawesome.com License - https://fontawesome.com/license (Commercial License) --><path d="M512 160C556.184 160 592 124.182 592 80S556.184 0 512 0C467.82 0 432 35.818 432 80S467.82 160 512 160ZM624 380H580V336C580 327.162 572.836 320 564 320H524C515.164 320 508 327.162 508 336V380H464C455.164 380 448 387.162 448 396V436C448 444.836 455.164 452 464 452H508V496C508 504.836 515.164 512 524 512H564C572.836 512 580 504.836 580 496V452H624C632.836 452 640 444.836 640 436V396C640 387.162 632.836 380 624 380ZM490.08 192C477.279 192 465.195 195.037 454.221 200.24C454.834 205.475 455.814 210.604 455.814 216C455.814 249.715 443.033 280.211 422.65 304H486.346C494.424 294.309 506.428 288 520 288H568C581.572 288 593.576 294.309 601.654 304H622.385C632.113 304 640 295.641 640 285.332C640 233.785 600.566 192 551.92 192H490.08ZM319.859 320C377.273 320 423.814 273.436 423.814 216C423.814 158.562 377.273 112 319.859 112C262.451 112 215.904 158.562 215.904 216C215.904 273.436 262.451 320 319.859 320ZM319.859 160C350.713 160 375.814 185.121 375.814 216S350.713 272 319.859 272S263.904 246.879 263.904 216S289.006 160 319.859 160ZM476 484H460C444.6 484 431.07 476.016 423.207 464H178.977C189.451 427.236 226.34 400 270.113 400H369.887C386.646 400 402.355 404.049 416 411.039V392C416 381.004 420.199 371.059 426.893 363.338C409.42 356.139 390.195 352 369.887 352H270.113C191.631 352 128 411.693 128 485.332C128 500.059 140.727 512 156.422 512H477.873C476.775 508.16 476 504.188 476 500V484ZM183.906 216C183.906 210.551 184.889 205.371 185.516 200.088C174.613 194.967 162.613 192 149.92 192H88.08C39.438 192 0 233.785 0 285.332C0 295.641 7.887 304 17.615 304H217.07C196.688 280.211 183.906 249.715 183.906 216ZM128 160C172.184 160 208 124.182 208 80S172.184 0 128 0C83.82 0 48 35.818 48 80S83.82 160 128 160Z"/></svg>

<svg xmlns="http://www.w3.org/2000/svg" viewBox="0 0 640 512"><!--! Font Awesome Pro 6.0.0-alpha3 by @fontawesome - https://fontawesome.com License - https://fontawesome.com/license (Commercial License) --><path d="M512 160c44.18 0 80-35.82 80-80S556.2 0 512 0c-44.18 0-80 35.82-80 80S467.8 160 512 160zM624 380h-44V336c0-8.838-7.164-16-16-16h-40c-8.836 0-16 7.162-16 16v44H464c-8.836 0-16 7.162-16 16v40c0 8.836 7.164 16 16 16h44V496c0 8.836 7.164 16 16 16h40c8.836 0 16-7.164 16-16v-44H624c8.836 0 16-7.164 16-16v-40C640 387.2 632.8 380 624 380zM490.1 192c-12.8 0-24.88 3.037-35.86 8.24C454.8 205.5 455.8 210.6 455.8 216c0 33.71-12.78 64.21-33.16 88h63.7C494.4 294.3 506.4 288 520 288h48c13.57 0 25.58 6.309 33.65 16h20.73C632.1 304 640 295.6 640 285.3C640 233.8 600.6 192 551.9 192H490.1zM319.9 320c57.41 0 103.1-46.56 103.1-104c0-57.44-46.54-104-103.1-104c-57.41 0-103.1 46.56-103.1 104C215.9 273.4 262.5 320 319.9 320zM319.9 160c30.85 0 55.96 25.12 55.96 56S350.7 272 319.9 272S263.9 246.9 263.9 216S289 160 319.9 160zM476 484h-16c-15.4 0-28.93-7.984-36.79-20H178.1c10.47-36.76 47.36-64 91.14-64H369.9c16.76 0 32.47 4.049 46.11 11.04V392c0-10.1 4.199-20.94 10.89-28.66C409.4 356.1 390.2 352 369.9 352H270.1C191.6 352 128 411.7 128 485.3C128 500.1 140.7 512 156.4 512h321.5C476.8 508.2 476 504.2 476 500V484zM183.9 216c0-5.449 .9824-10.63 1.609-15.91C174.6 194.1 162.6 192 149.9 192H88.08C39.44 192 0 233.8 0 285.3C0 295.6 7.887 304 17.62 304h199.5C196.7 280.2 183.9 249.7 183.9 216zM128 160c44.18 0 80-35.82 80-80S172.2 0 128 0C83.82 0 48 35.82 48 80S83.82 160 128 160z"/></svg>
